app/assets/images/payment_icons/busd.svg

<svg width="38" height="24" viewBox="0 0 38 24" fill="none" xmlns="http://www.w3.org/2000/svg" role="img" aria-labelledby="pi-busd">
<rect width="38" height="24" fill="white"/>
<path opacity="0.07" d="M35 0H3C1.3 0 0 1.3 0 3V21C0 22.7 1.4 24 3 24H35C36.7 24 38 22.7 38 21V3C38 1.3 36.6 0 35 0Z" fill="black"/>
<path d="M35 1C36.1 1 37 1.9 37 3V21C37 22.1 36.1 23 35 23H3C1.9 23 1 22.1 1 21V3C1 1.9 1.9 1 3 1H35Z" fill="white"/>
<circle cx="19" cy="12" r="8" fill="#F3BA2D"/>
<path fill-rule="evenodd" clip-rule="evenodd" d="M19.0239 6.64047L15.6298 10.0346L16.9875 11.3922L20.3816 7.99812L19.0239 6.64047ZM14.9657 10.8587L13.608 12.2164L14.9657 13.574L16.3233 12.2164L14.9657 10.8587ZM15.7316 14.2528L21.1622 8.82224L22.5198 10.1799L17.0892 15.6105L15.7316 14.2528ZM23.4022 10.7422L17.9716 16.1728L19.3292 17.5305L24.7598 12.0999L23.4022 10.7422Z" fill="white"/>
</svg>

<svg width="38" height="24" fill="none" xmlns="http://www.w3.org/2000/svg" aria-labelledby="pi-busd"><path fill="#fff" d="M0 0h38v24H0z"/><path opacity=".07" d="M35 0H3C1.3 0 0 1.3 0 3v18c0 1.7 1.4 3 3 3h32c1.7 0 3-1.3 3-3V3c0-1.7-1.4-3-3-3Z" fill="#000"/><path d="M35 1c1.1 0 2 .9 2 2v18c0 1.1-.9 2-2 2H3c-1.1 0-2-.9-2-2V3c0-1.1.9-2 2-2h32Z" fill="#fff"/><circle cx="19" cy="12" r="8" fill="#F3BA2D"/><path fill-rule="evenodd" clip-rule="evenodd" d="m19.024 6.64-3.394 3.395 1.357 1.357 3.395-3.394-1.358-1.358Zm-4.058 4.219-1.358 1.357 1.358 1.358 1.357-1.358-1.357-1.357Zm.766 3.394 5.43-5.43 1.358 1.357-5.43 5.43-1.358-1.357Zm7.67-3.51-5.43 5.43 1.357 1.358 5.43-5.431-1.357-1.358Z" fill="#fff"/></svg>
